images/twitter-active.svg

<svg width="27" height="22" viewBox="0 0 27 22" fill="none" xmlns="http://www.w3.org/2000/svg">
<path d="M27 2.55155C25.9875 3.00515 24.9188 3.28866 23.7938 3.45876C24.9188 2.77835 25.8188 1.70103 26.2125 0.396907C25.1437 1.02062 23.9625 1.47423 22.6688 1.75773C21.6562 0.680412 20.1938 0 18.6187 0C15.5812 0 13.1062 2.49485 13.1062 5.5567C13.1062 6.01031 13.1625 6.40722 13.275 6.80412C8.71875 6.57732 4.6125 4.36598 1.85625 0.963918C1.40625 1.81443 1.125 2.72165 1.125 3.74227C1.125 5.6701 2.08125 7.37113 3.6 8.39175C2.7 8.33505 1.85625 8.10825 1.06875 7.71134V7.76804C1.06875 10.4897 2.98125 12.7577 5.5125 13.268C5.0625 13.3814 4.55625 13.4381 4.05 13.4381C3.7125 13.4381 3.31875 13.3814 2.98125 13.3247C3.7125 15.5361 5.7375 17.1804 8.15625 17.1804C6.24375 18.6546 3.88125 19.5619 1.29375 19.5619C0.84375 19.5619 0.39375 19.5619 0 19.5052C2.475 21.0928 5.34375 22 8.49375 22C18.675 22 24.2437 13.4948 24.2437 6.12371C24.2437 5.89691 24.2437 5.6134 24.2437 5.3866C25.3125 4.64948 26.2687 3.68557 27 2.55155Z" fill="#5454d4"/>
</svg>

<svg width="27" height="22" fill="none" xmlns="http://www.w3.org/2000/svg"><path d="M27 2.552c-1.012.453-2.081.737-3.206.907 1.125-.68 2.025-1.758 2.418-3.062a12.133 12.133 0 01-3.543 1.36A5.586 5.586 0 0018.619 0c-3.038 0-5.513 2.495-5.513 5.557 0 .453.056.85.169 1.247C8.719 6.577 4.612 4.366 1.856.964c-.45.85-.731 1.758-.731 2.778 0 1.928.956 3.63 2.475 4.65a6.468 6.468 0 01-2.531-.68v.056c0 2.722 1.912 4.99 4.444 5.5-.45.113-.957.17-1.463.17a6.84 6.84 0 01-1.069-.113c.732 2.211 2.756 3.855 5.175 3.855-1.912 1.475-4.275 2.382-6.862 2.382-.45 0-.9 0-1.294-.057A15.562 15.562 0 008.494 22c10.181 0 15.75-8.505 15.75-15.876v-.737A10.145 10.145 0 0027 2.552z" fill="#5454d4"/></svg>
